X:642
T: ICH HABE MIR EINES ERWAEHLT
N: E0591A
O: Europa, Mitteleuropa, Deutschland, Kaiserslautern, Westrich
R: Liebes - Lied
M: 6/8
L: 1/16
K: F
FG | A3BA2G2F2G2 | F6z4
AB | c3dc2c2B2B2 | A6z4
AB | c2c2d2B4
GA | B2B2c2A4
FG | A3BA2G2F2G2 | F6z4

